tde/widget/notification-center/icons/notification.dark.svg

<?xml version="1.0" encoding="UTF-8" standalone="no"?>
<svg
   xmlns:dc="http://purl.org/dc/elements/1.1/"
   xmlns:cc="http://creativecommons.org/ns#"
   xmlns:rdf="http://www.w3.org/1999/02/22-rdf-syntax-ns#"
   xmlns:svg="http://www.w3.org/2000/svg"
   xmlns="http://www.w3.org/2000/svg"
   xmlns:sodipodi="http://sodipodi.sourceforge.net/DTD/sodipodi-0.dtd"
   xmlns:inkscape="http://www.inkscape.org/namespaces/inkscape"
   height="512pt"
   viewBox="0 -43 512 512"
   width="512pt"
   version="1.1"
   id="svg14"
   sodipodi:docname="bullet-list.svg"
   inkscape:version="0.92.4 5da689c313, 2019-01-14">
  <metadata
     id="metadata20">
    <rdf:RDF>
      <cc:Work
         rdf:about="">
        <dc:format>image/svg+xml</dc:format>
        <dc:type
           rdf:resource="http://purl.org/dc/dcmitype/StillImage" />
      </cc:Work>
    </rdf:RDF>
  </metadata>
  <defs
     id="defs18" />
  <sodipodi:namedview
     pagecolor="#000000"
     bordercolor="#666666"
     borderopacity="1"
     objecttolerance="10"
     gridtolerance="10"
     guidetolerance="10"
     inkscape:pageopacity="0"
     inkscape:pageshadow="2"
     inkscape:window-width="1321"
     inkscape:window-height="742"
     id="namedview16"
     showgrid="false"
     inkscape:zoom="0.34570313"
     inkscape:cx="-161.9887"
     inkscape:cy="341.33333"
     inkscape:window-x="45"
     inkscape:window-y="26"
     inkscape:window-maximized="0"
     inkscape:current-layer="svg14" />
  <path
     d="m85.332031 42.667969c0 23.5625-19.101562 42.664062-42.664062 42.664062-23.566407 0-42.667969-19.101562-42.667969-42.664062 0-23.566407 19.101562-42.667969 42.667969-42.667969 23.5625 0 42.664062 19.101562 42.664062 42.667969zm0 0"
     id="path2"
     style="fill:#000000;fill-opacity:1" />
  <path
     d="m85.332031 213.332031c0 23.566407-19.101562 42.667969-42.664062 42.667969-23.566407 0-42.667969-19.101562-42.667969-42.667969 0-23.5625 19.101562-42.664062 42.667969-42.664062 23.5625 0 42.664062 19.101562 42.664062 42.664062zm0 0"
     id="path4"
     style="fill:#000000;fill-opacity:1" />
  <path
     d="m85.332031 384c0 23.5625-19.101562 42.667969-42.664062 42.667969-23.566407 0-42.667969-19.105469-42.667969-42.667969s19.101562-42.667969 42.667969-42.667969c23.5625 0 42.664062 19.105469 42.664062 42.667969zm0 0"
     id="path6"
     style="fill:#000000;fill-opacity:1" />
  <path
     d="m170.667969 64h320c11.796875 0 21.332031-9.535156 21.332031-21.332031s-9.535156-21.335938-21.332031-21.335938h-320c-11.796875 0-21.335938 9.539063-21.335938 21.335938s9.539063 21.332031 21.335938 21.332031zm0 0"
     id="path8"
     style="fill:#000000;fill-opacity:1" />
  <path
     d="m490.667969 192h-320c-11.796875 0-21.335938 9.535156-21.335938 21.332031s9.539063 21.335938 21.335938 21.335938h320c11.796875 0 21.332031-9.539063 21.332031-21.335938s-9.535156-21.332031-21.332031-21.332031zm0 0"
     id="path10"
     style="fill:#000000;fill-opacity:1" />
  <path
     d="m490.667969 362.667969h-320c-11.796875 0-21.335938 9.535156-21.335938 21.332031s9.539063 21.332031 21.335938 21.332031h320c11.796875 0 21.332031-9.535156 21.332031-21.332031s-9.535156-21.332031-21.332031-21.332031zm0 0"
     id="path12"
     style="fill:#000000;fill-opacity:1" />
</svg>

<svg xmlns="http://www.w3.org/2000/svg" height="512pt" viewBox="0 -43 512 512" width="512pt"><path d="M85.332 42.668c0 23.562-19.102 42.664-42.664 42.664C19.102 85.332 0 66.23 0 42.668 0 19.102 19.102 0 42.668 0 66.23 0 85.332 19.102 85.332 42.668zm0 170.664C85.332 236.898 66.23 256 42.668 256 19.102 256 0 236.898 0 213.332c0-23.562 19.102-42.664 42.668-42.664 23.562 0 42.664 19.102 42.664 42.664zm0 170.668c0 23.563-19.102 42.668-42.664 42.668C19.102 426.668 0 407.562 0 384s19.102-42.668 42.668-42.668c23.562 0 42.664 19.106 42.664 42.668zm85.336-320h320C502.465 64 512 54.465 512 42.668s-9.535-21.336-21.332-21.336h-320c-11.797 0-21.336 9.54-21.336 21.336S158.872 64 170.668 64zm320 128h-320c-11.797 0-21.336 9.535-21.336 21.332s9.54 21.336 21.336 21.336h320c11.797 0 21.332-9.54 21.332-21.336S502.465 192 490.668 192zm0 170.668h-320c-11.797 0-21.336 9.535-21.336 21.332s9.54 21.332 21.336 21.332h320c11.797 0 21.332-9.535 21.332-21.332s-9.535-21.332-21.332-21.332zm0 0" style="fill:#000;fill-opacity:1"/></svg>
